icons/night/js.svg

<svg width="16" height="16" viewBox="0 0 16 16" fill="none" xmlns="http://www.w3.org/2000/svg">
<path d="M5.957 10.63C6.04386 10.6356 6.1308 10.6206 6.21075 10.5862C6.29069 10.5518 6.36137 10.4989 6.417 10.432C6.53211 10.2659 6.58714 10.0656 6.573 9.864V6.261H7.629V9.864C7.631 10.175 7.562 10.484 7.427 10.764C7.29766 11.0187 7.09212 11.2267 6.839 11.359C6.554 11.501 6.239 11.572 5.919 11.567C5.60221 11.5779 5.28742 11.5128 5.001 11.377C4.75393 11.2588 4.54399 11.0752 4.394 10.846L5.221 10.287C5.30608 10.3932 5.41378 10.4791 5.53626 10.5385C5.65874 10.5978 5.79291 10.6291 5.929 10.63M10.736 6.198C10.936 6.197 11.137 6.218 11.333 6.261C11.7393 6.35259 12.1256 6.51727 12.473 6.747L12.041 7.594C11.841 7.456 11.621 7.347 11.389 7.27C11.18 7.19242 10.9589 7.15279 10.736 7.153C10.4873 7.13516 10.2387 7.18822 10.019 7.306C9.94135 7.34599 9.87626 7.40665 9.83091 7.48129C9.78555 7.55594 9.76171 7.64166 9.762 7.729C9.75859 7.79448 9.76814 7.85999 9.7901 7.92176C9.81207 7.98354 9.84602 8.04038 9.89 8.089C9.98505 8.17796 10.0979 8.24578 10.221 8.288C10.359 8.288 10.543 8.368 10.773 8.423H10.92C11.212 8.474 11.498 8.553 11.775 8.657C12.005 8.754 12.205 8.909 12.354 9.107C12.53 9.375 12.61 9.691 12.584 10.008C12.597 10.325 12.514 10.638 12.344 10.909C12.172 11.159 11.924 11.351 11.637 11.459C11.2821 11.5937 10.9044 11.6579 10.525 11.648C10.271 11.648 10.018 11.621 9.771 11.567C9.53001 11.5235 9.29526 11.4506 9.072 11.35C8.86341 11.2571 8.66858 11.136 8.493 10.99L8.963 10.17C9.18 10.34 9.425 10.47 9.688 10.558C9.958 10.648 10.24 10.693 10.525 10.693C10.792 10.707 11.059 10.651 11.297 10.531C11.4086 10.4703 11.495 10.3719 11.5408 10.2534C11.5866 10.1349 11.5888 10.004 11.547 9.884C11.5263 9.82658 11.4944 9.77387 11.453 9.729C11.3624 9.64306 11.2517 9.58118 11.131 9.549L10.626 9.441H10.506C10.1939 9.40033 9.88622 9.33069 9.587 9.233C9.34032 9.12691 9.132 8.9479 8.99 8.72C8.80695 8.45714 8.71943 8.13952 8.742 7.82C8.72572 7.503 8.80592 7.1885 8.972 6.918C9.135 6.668 9.372 6.474 9.652 6.36C9.998 6.235 10.367 6.18 10.736 6.198ZM13.034 3H2.924C2.68116 2.99966 2.44783 3.09443 2.274 3.264C2.18884 3.34685 2.12109 3.44587 2.07473 3.55526C2.02836 3.66465 2.00432 3.78219 2.004 3.901V12.008C1.99099 12.1341 2.00524 12.2615 2.04578 12.3816C2.08633 12.5017 2.15222 12.6116 2.239 12.704C2.32626 12.7983 2.43229 12.8732 2.55027 12.924C2.66825 12.9748 2.79556 13.0004 2.924 12.999H13.034C13.162 13.0052 13.2899 12.9851 13.4098 12.9398C13.5297 12.8946 13.639 12.8252 13.731 12.736C13.8211 12.6474 13.8916 12.5407 13.9378 12.4231C13.9839 12.3054 14.0048 12.1793 13.999 12.053V3.946C13.9994 3.8232 13.9742 3.70166 13.9251 3.58909C13.8761 3.47651 13.8042 3.37535 13.714 3.292C13.6232 3.20711 13.5161 3.14147 13.3992 3.09902C13.2824 3.05657 13.1581 3.0382 13.034 3.045" fill="#E0AF68"/>
</svg>

<svg xmlns="http://www.w3.org/2000/svg" fill="none" viewBox="0 0 16 16"><path
    fill="#e0af68"
    d="M5.957 10.63a.552.552 0 0 0 .46-.198.888.888 0 0 0 .156-.568V6.261h1.056v3.603c.002.311-.067.62-.202.9a1.373 1.373 0 0 1-.588.595c-.285.142-.6.213-.92.208a1.983 1.983 0 0 1-.918-.19 1.498 1.498 0 0 1-.607-.531l.827-.559a.915.915 0 0 0 .708.343m4.807-4.432c.2-.001.401.02.597.063a3.437 3.437 0 0 1 1.14.486l-.432.847c-.2-.138-.42-.247-.652-.324a1.871 1.871 0 0 0-.653-.117 1.318 1.318 0 0 0-.717.153.474.474 0 0 0-.257.423.498.498 0 0 0 .128.36.922.922 0 0 0 .331.199c.138 0 .322.08.552.135h.147c.292.051.578.13.855.234.23.097.43.252.579.45.176.268.256.584.23.901.013.317-.07.63-.24.901-.172.25-.42.442-.707.55a2.92 2.92 0 0 1-1.112.189c-.254 0-.507-.027-.754-.081a2.998 2.998 0 0 1-.699-.217 2.49 2.49 0 0 1-.579-.36l.47-.82c.217.17.462.3.725.388.27.09.552.135.837.135.267.014.534-.042.772-.162a.536.536 0 0 0 .25-.647.457.457 0 0 0-.094-.155.748.748 0 0 0-.322-.18l-.505-.108h-.12a5.073 5.073 0 0 1-.919-.208 1.316 1.316 0 0 1-.597-.513 1.402 1.402 0 0 1-.248-.9 1.57 1.57 0 0 1 .23-.902c.163-.25.4-.444.68-.558.346-.125.715-.18 1.084-.162ZM13.034 3H2.924a.929.929 0 0 0-.65.264.892.892 0 0 0-.27.637v8.107a.884.884 0 0 0 .235.696.92.92 0 0 0 .685.295h10.11a.936.936 0 0 0 .697-.263.9.9 0 0 0 .268-.683V3.946a.887.887 0 0 0-.285-.654.922.922 0 0 0-.68-.247"
  /></svg>
